X: 24
T: Cooley's
Z: Zara
S: https://thesession.org/tunes/1#setting52232
R: reel
M: 4/4
L: 1/8
K: Edor
|:EBBA B2 EB|B2 AB dBAG|FDAD BDAD|FDFA dAFD|
EBBA B2 EB|B2 AB defg|afec dBAF|DEFD E2:|
|:gf|eB B2 efgf|eB B2 gedB|A2 FA DAFA|A2 FA defd|
eB B2 efgf|eBB2 defg|afec dBAF|DEFD E2:|

